X: 15874
T: Graf Spee, The
R: reel
M: 4/4
K: Ddorian
|:E2CD E~G3|AGcG AGcG|EDCD E~G3|AGcG EDD2:|
efed cBcA|G~E3 GAcd|efed cBcA|GECD EDD2|
efed cBcA|G~E3 GAcd|eaag efed|cAGE EDD2|
|:eggf gedg|eaag a3g|efed cBcd|edge edd2:|
|:ec (3ccc cAGE|GAcd cAGE|GAcd ecdc|cAGE EDD2:|
(3efg cg (3efg cg|(3fga da (3fga da|(3efg cg (3efg cg|ABcd edde|
g2af gefd|ecdB cAGE|GAcd ecdB|cAGE EDD2||

